X: 662
T: Esti Nesîm-i Nevbahar
C: Hacı Ârif Bey
O: Turkey
F: http://compmusic.upf.edu/node/140
N: rast--sarki--turkaksagi--esti_nesim-i_nevbahar--haci_arif_bey
N: makam= rast
N: form= sarki
N: usul= turkaksagi = 5/8
M: 5/8
L: 1/16
K: C _1/4B ^f  
Q: 1/4=132
%%MIDI tuningsystem comma53
G4 B4 A2 | G2 A2B2 c2e2  | d2c2 B4 G2 | \
w:  ARANAĞME  |   |   | 
AG ABAG FED2  | 
w:   | 
G4 B4 A2 | G2 A2B2 c2e2  | d2c2 B4 G2 | \
w:  ARANAĞME  |   |   | 
AG ABG4z2  | G4 B4 A2 | 
w:   |  Es ti  ne  | 
G2 A2B2 c2e2  | d2c2 B2A2 c2 | B2 ABdc BAG2  | \
w:  sîm_  |  i  *  nev *  ba  |  har   | 
G3A B2c2 e2 | 
w:  a *  çıl *  dı   | 
d2 c2B3AG2  | A4 B4 AG | G4FG EFD2  | G4 B4 A2 | \
w:  gül  |  ler  sub hu  |  dem   SAZ  |  Es ti  ne  | 
G2 A2B2 c2e2  | 
w:  sîm_  | 
d2c2 B2A2 c2 | B2 ABdc BAG2  | G3A B2c2 e2 | \
w:  i  *  nev *  ba  |  har   |  a *  çıl *  dı   | 
d2 c2B3AG2  | 
w:  gül  | 
A4 B4 AG | G4d4z2  | G4 d4 c2 | d2 c2_B2 A2B2  | \
w:  ler  sub hu  |  dem   SAZ  |  Aç sın  bi  |  zim   | 
c2d2 _e2d2 c2 | _B2 ABdc BAG2  | 
w:  de  *  gön *  lü  |  müz   | 
G2A2 B2c2 e2 | d2 c2B3AG2  | A4 B4 AG | \
w:  sâ *  kî  *  me  |  ded   |  sun  câm_ ı   | 
G8z2  | G2A2 B2c2 e2 | 
w:  cem    |  ARANAĞME  | 
ed dcd4z2  | c2B2 A2G2 e2 | ed dcd4z2  | \
w:   |   |   | 
c2e2 e2d2 c2 | 
w:   | 
B2 d2d2 c2B2  | A2c2 c2B2 A2 | AG ABAG FED2  | \
w:   |   |   | 
G2A2 B2c2 e2 | 
w:  ARANAĞME  | 
ed dcd4z2  | c2B2 A2G2 e2 | ed dcd4z2  | \
w:   |   |   | 
c2e2 e2d2 c2 | 
w:   | 
B2 d2d2 c2B2  | A2c2 c2B2 A2 | AG GFGA Bcde  | \
w:   |   |   | 
=f4 f4 e2 | 
w:  Er di  yi  | 
=f2 e2f2 g2a2  | g2=f2 e4 ed | d2 edd4z2  | \
w:  ne   |  ür *  di  be  |  hişt   | 
c3d e2^1/4f2 a2 | g2 =f2e2 d2c2  | 
w:  ol *  du  *  ha  |  va   | 
e3d d4 e2 | dc B^1/4AB4z2  | A2B2 c2d2 e=f | \
w:  an *  ber  si  |  rişt    |  Â *  lem  *  be  | 
ed dcd4z2  | 
w:  hişt   | 
c3B A4 c2 | B2 ABdc BAG2  | G3A B2c2 e2 | \
w:  en *  der  be  |  hişt   |  her  *  kû *  şe   | 
d2 c2B3AG2  | 
w:  bir   | 
A4 B4 AG | G8z2  | G4 B4 A2 | G2 A2B2 c2e2  | \
w:  bağ_ ı  i  |  rem    |  ARANAĞME  |   | 
d2c2 B4 G2 | AG ABAG FED2  | 
w:   |   | 
G4 B4 A2 | G2 A2B2 c2e2  | d2c2 B4 G2 | \
w:  ARANAĞME  |   |   | 
AG ABG4z2  | G4 B4 A2 | 
w:   |  Es ti  ne  | 
G2 A2B2 c2e2  | d2c2 B2A2 c2 | B2 ABdc BAG2  | \
w:  sîm_  |  i  *  nev *  ba  |  har   | 
G3A B2c2 e2 | 
w:  a *  çıl *  dı   | 
d2 c2B3AG2  | A4 B4 AG | G4FG EFD2  | G4 B4 A2 | \
w:  gül  |  ler  sub hu  |  dem   SAZ  |  Es ti  ne  | 
G2 A2B2 c2e2  | 
w:  sîm_  | 
d2c2 B2A2 c2 | B2 ABdc BAG2  | G3A B2c2 e2 | \
w:  i  *  nev *  ba  |  har   |  a *  çıl *  dı   | 
d2 c2B3AG2  | 
w:  gül  | 
A4 B4 AG | G4d4z2  | G4 d4 c2 | d2 c2_B2 A2B2  | \
w:  ler  sub hu  |  dem   SAZ  |  Aç sın  bi  |  zim   | 
c2d2 _e2d2 c2 | _B2 ABdc BAG2  | 
w:  de  *  gön *  lü  |  müz   | 
G2A2 B2c2 e2 | d2 c2B3AG2  | A4 B4 AG | \
w:  sâ *  kî  *  me  |  ded   |  sun  câm_ ı   | 
G8z2  | G2A2 B2c2 e2 | 
w:  cem    |  ARANAĞME  | 
ed dcd4z2  | c2B2 A2G2 e2 | ed dcd4z2  | \
w:   |   |   | 
c2e2 e2d2 c2 | 
w:   | 
B2 d2d2 c2B2  | A2c2 c2B2 A2 | AG ABAG FED2  | \
w:   |   |   | 
G2A2 B2c2 e2 | 
w:  ARANAĞME  | 
ed dcd4z2  | c2B2 A2G2 e2 | ed dcd4z2  | \
w:   |   |   | 
c2e2 e2d2 c2 | 
w:   | 
B2 d2d2 c2B2  | A2c2 c2B2 A2 | AG GFGA Bcde  | \
w:   |   |   | 
=f4 f4 e2 | 
w:  Er di  yi  | 
=f2 e2f2 g2a2  | g2=f2 e4 ed | d2 edd4z2  | \
w:  ne   |  ür *  di  be  |  hişt   | 
c3d e2^1/4f2 a2 | g2 =f2e2 d2c2  | 
w:  ol *  du  *  ha  |  va   | 
e3d d4 e2 | dc B^1/4AB4z2  | A2B2 c2d2 e=f | \
w:  an *  ber  si  |  rişt    |  Â *  lem  *  be  | 
ed dcd4z2  | 
w:  hişt   | 
c3B A4 c2 | B2 ABdc BAG2  | G3A B2c2 e2 | \
w:  en *  der  be  |  hişt   |  her  *  kû *  şe   | 
d2 c2B3AG2  | 
w:  bir   | 
A4 B4 AG | G8z2  | |


